theme/essential/pix_core/e/math.svg

<!DOCTYPE svg PUBLIC "-//W3C//DTD SVG 1.1//EN" "http://www.w3.org/Graphics/SVG/1.1/DTD/svg11.dtd" [
	<!ENTITY ns_flows "http://ns.adobe.com/Flows/1.0/">
]><svg xmlns="http://www.w3.org/2000/svg" width="16" height="16" viewBox="-0.1 0 16 16" preserveAspectRatio="xMinYMid meet" overflow="visible" enable-background="new -0.1 0 16 16"><path d="M15.9 2h-7.6l-3.7 14h-2.6l-2-7.3 1.9-.5 1.3 4.9 3.6-13.1h9.1v2zm-3.1 4.2c-.1.3-.1.7-.2 1h-.1c-.4-.8-1.2-1.2-2.1-1.2-1.8 0-3.6 1.6-3.6 4.3 0 2.4 1.5 3.9 3.2 3.9 1.1 0 2-.5 2.5-1.4.2.9.8 1.4 1.7 1.4.3 0 .7-.1.8-.1l.1-1.7c-.4 0-.7-.2-.7-1.1 0-1.7.1-3.9.2-5.1h-1.8zm-3.5 3.9c0-1.2.6-2.3 1.5-2.3.7 0 1.2.6 1.4 1.5 0 .2 0 .4 0 .7 0 .3 0 .5 0 .8-.1.8-.7 1.5-1.4 1.5-.9 0-1.5-1-1.5-2.2z" fill="#999"/></svg>

<?xml version="1.0" encoding="utf-8"?>
<!-- Generator: Adobe Illustrator 15.1.0, SVG Export Plug-In  -->
<!DOCTYPE svg PUBLIC "-//W3C//DTD SVG 1.1//EN" "http://www.w3.org/Graphics/SVG/1.1/DTD/svg11.dtd" [
	<!ENTITY ns_flows "http://ns.adobe.com/Flows/1.0/">
]>
<svg version="1.1"
	 xmlns="http://www.w3.org/2000/svg" xmlns:xlink="http://www.w3.org/1999/xlink" xmlns:a="http://ns.adobe.com/AdobeSVGViewerExtensions/3.0/"
	 x="0px" y="0px" width="16px" height="16px" viewBox="-0.1 0 16 16" style="overflow:visible;enable-background:new -0.1 0 16 16;"
	 xml:space="preserve" preserveAspectRatio="xMinYMid meet">
<defs>
</defs>
<path style="fill:#29a1c4;" d="M15.9,2H8.3L4.6,16H2L0,8.7l1.9-0.5l1.3,4.9L6.8,0h9.1V2z M12.8,6.2c-0.1,0.3-0.1,0.7-0.2,1h-0.1
	C12.1,6.4,11.3,6,10.4,6c-1.8,0-3.6,1.6-3.6,4.3c0,2.4,1.5,3.9,3.2,3.9c1.1,0,2-0.5,2.5-1.4h0c0.2,0.9,0.8,1.4,1.7,1.4
	c0.3,0,0.7-0.1,0.8-0.1l0.1-1.7c-0.4,0-0.7-0.2-0.7-1.1c0-1.7,0.1-3.9,0.2-5.1H12.8z M9.3,10.1c0-1.2,0.6-2.3,1.5-2.3
	c0.7,0,1.2,0.6,1.4,1.5c0,0.2,0,0.4,0,0.7c0,0.3,0,0.5,0,0.8c-0.1,0.8-0.7,1.5-1.4,1.5C9.9,12.3,9.3,11.3,9.3,10.1z"/>
</svg>
